.source/svgs/thumbsup.svg

<svg xmlns="http://www.w3.org/2000/svg" xmlns:xlink="http://www.w3.org/1999/xlink" viewBox="0 0 24 24">
  <path fill="#000000" d="M8,11.5 L8,21.1327046 L13.8600072,21.9698485 C14.000537,21.9899242 14.1423146,22 14.2842712,22 L19.2219066,22 C20.2669792,22 21.1358621,21.1953873 21.2160156,20.153393 L21.8372999,12.0766965 C21.8392629,12.0511781 21.8402454,12.0255938 21.8402454,12 C21.8402454,11.4477153 21.3925302,11 20.8402454,11 L16.3874259,11 C16.1724617,11 15.9589033,10.9653442 15.7549704,10.8973666 C14.7070837,10.5480711 14.1407637,9.4154311 14.4900593,8.36754447 L15.2607473,6.05548048 C15.5967536,5.04746148 15.2500363,3.93752719 14.4,3.3 L13.5623659,2.6717744 L12.3311762,6.98093831 C12.0313863,8.03020299 11.3965578,8.95258162 10.5235564,9.60733267 L8,11.5 Z M14.1118081,0.748726507 C14.3465607,0.815798679 14.5670488,0.925286567 14.7623659,1.0717744 L15.6,1.7 C17.1387249,2.85404368 17.7663483,4.86323274 17.1581139,6.68793601 L16.3874259,9 L20.8402454,9 C22.4970997,9 23.8402454,10.3431458 23.8402454,12 C23.8402454,12.0767813 23.8372977,12.1535343 23.8314089,12.2300895 L23.2101245,20.306786 C23.0498177,22.3907747 21.3120518,24 19.2219066,24 L14.2842712,24 C14.0476769,24 13.8113809,23.983207 13.5771645,23.9497475 L7.98852566,23.1519762 C7.91531507,23.632136 7.50061715,24 7,24 L1,24 C0.44771525,24 0,23.5522847 0,23 L0,9 C0,8.44771525 0.44771525,8 1,8 L7,8 C7.55228475,8 8,8.44771525 8,9 L9.32355644,8.00733267 C9.84735728,7.61448204 10.2282543,7.06105486 10.4081283,6.43149605 L11.639318,2.12233215 C11.9427666,1.06026212 13.0497381,0.445277928 14.1118081,0.748726507 Z M6,10 L2,10 L2,22 L6,22 L6,10 Z"/>
</svg>

<?xml version="1.0" encoding="UTF-8"?>
<svg viewBox="0 0 24 24" xmlns="http://www.w3.org/2000/svg" xmlns:xlink="http://www.w3.org/1999/xlink">
<defs>
<path id="a" d="M8 11.5v9.633l5.86.837a3 3 0 0 0 .424.03h4.938a2 2 0 0 0 1.994-1.847l.621-8.076A1 1 0 0 0 20.84 11h-4.453a2 2 0 0 1-1.897-2.632l.77-2.313A2.469 2.469 0 0 0 14.4 3.3l-.838-.628-1.23 4.309a5 5 0 0 1-1.808 2.626L8 11.5zM14.112.749a2 2 0 0 1 .65.323l.838.628a4.469 4.469 0 0 1 1.558 4.988L16.388 9h4.452a3 3 0 0 1 2.991 3.23l-.62 8.077A4 4 0 0 1 19.22 24h-4.937a5 5 0 0 1-.707-.05l-5.588-.798A1 1 0 0 1 7 24H1a1 1 0 0 1-1-1V9a1 1 0 0 1 1-1h6a1 1 0 0 1 1 1l1.324-.993a3 3 0 0 0 1.084-1.576l1.231-4.309A2 2 0 0 1 14.112.75zM6 10H2v12h4V10z"/>
</defs>
<g fill="none" fill-rule="evenodd">
<path d="M0 0h24v24H0z"/>
<mask id="b" fill="#fff">
<use xlink:href="#a"/>
</mask>
<use fill="#393939" fill-rule="nonzero" xlink:href="#a"/>
<g fill="#799189" fill-rule="nonzero" mask="url(#b)">
<path d="M0 0h24v24H0z"/>
</g>
</g>
</svg>
